svg/color/fant.svg

<?xml version="1.0" encoding="UTF-8" ?>
<!DOCTYPE svg PUBLIC "-//W3C//DTD SVG 1.1//EN" "http://www.w3.org/Graphics/SVG/1.1/DTD/svg11.dtd">
<svg width="221pt" height="250pt" viewBox="0 0 221 250" version="1.1" xmlns="http://www.w3.org/2000/svg">
<g id="#ffffffff">
<path fill="#ffffff" opacity="1.00" d=" M 0.00 0.00 L 221.00 0.00 L 221.00 250.00 L 0.00 250.00 L 0.00 0.00 M 54.10 20.88 L 54.10 21.14 C 46.42 25.33 41.78 34.30 42.62 42.99 C 43.17 50.34 47.63 57.02 53.83 60.88 C 62.50 65.76 74.20 64.64 81.36 57.55 C 87.56 51.07 96.09 47.27 104.83 45.71 C 109.80 45.20 114.83 45.25 119.76 46.18 C 123.99 47.14 128.01 48.78 131.94 50.60 L 131.93 50.73 C 139.65 55.25 146.12 62.04 149.78 70.25 C 155.53 82.68 154.70 97.88 147.62 109.61 C 144.40 115.41 139.37 119.80 134.23 123.83 C 125.66 128.80 115.70 131.26 105.80 130.24 C 102.75 129.36 99.61 128.86 96.57 127.97 C 92.31 126.22 88.34 123.89 84.49 121.39 L 84.53 121.05 C 81.49 118.45 78.64 115.47 74.90 113.87 C 71.51 112.22 67.70 111.86 63.98 111.75 C 58.83 112.45 53.70 114.25 49.92 117.94 C 42.94 124.20 40.56 134.93 44.29 143.55 C 46.44 149.04 51.53 152.61 54.05 157.90 C 61.05 170.62 58.89 187.48 48.98 198.07 C 42.40 204.82 40.53 215.69 44.91 224.11 C 47.90 230.57 54.16 234.96 60.97 236.64 C 65.40 237.02 69.91 236.90 74.15 235.40 C 83.15 231.55 89.30 221.90 88.37 212.06 C 87.91 206.80 85.45 201.96 82.02 198.01 C 78.46 193.89 76.42 188.80 74.49 183.78 C 74.42 181.17 73.74 178.62 73.61 176.02 C 73.11 165.68 77.22 155.27 84.56 147.98 L 84.53 147.67 C 88.20 144.63 92.06 141.76 96.51 139.95 L 96.48 139.71 C 102.14 137.67 108.12 136.85 114.13 137.12 C 121.26 137.78 128.06 140.46 133.84 144.67 C 138.42 148.58 142.26 153.64 148.00 155.95 C 151.06 157.33 154.45 157.58 157.75 157.83 C 164.59 157.19 171.33 153.97 175.33 148.25 C 180.90 140.78 181.18 129.84 175.90 122.14 C 173.16 117.90 168.61 115.39 165.34 111.64 C 163.06 109.13 161.46 106.13 159.72 103.25 C 158.92 99.84 157.42 96.58 157.14 93.05 C 155.95 86.13 157.52 79.17 159.65 72.62 C 161.80 68.91 163.92 65.07 167.14 62.15 C 169.92 59.61 173.18 57.53 175.38 54.41 C 180.22 47.87 181.07 38.65 177.57 31.31 C 174.65 25.08 168.84 20.25 162.12 18.69 C 154.56 17.03 146.19 19.05 140.76 24.70 C 137.97 27.81 135.26 31.03 131.92 33.59 C 127.88 36.26 123.45 38.29 118.76 39.50 C 113.39 40.55 107.91 40.34 102.55 39.39 L 102.53 39.18 C 93.88 37.10 86.59 31.43 81.37 24.36 C 74.16 17.50 62.84 16.32 54.10 20.88 M 102.01 66.80 L 102.02 67.06 C 93.80 70.42 88.04 79.11 88.35 88.02 C 88.20 96.86 93.94 105.53 102.21 108.73 L 102.21 109.08 C 106.65 110.38 111.38 111.24 115.96 110.11 C 126.07 108.08 134.03 98.38 133.79 88.03 C 134.10 79.29 128.58 70.83 120.68 67.21 C 114.88 64.39 107.99 64.70 102.01 66.80 Z" />
</g>
<g id="#538ce7ff">
<path fill="#538ce7" opacity="1.00" d=" M 54.10 20.88 C 62.84 16.32 74.16 17.50 81.37 24.36 C 80.48 35.39 80.43 46.53 81.36 57.55 C 74.20 64.64 62.50 65.76 53.83 60.88 C 54.56 47.65 54.06 34.38 54.10 21.14 L 54.10 20.88 Z" />
</g>
<g id="#2ad0ddff">
<path fill="#2ad0dd" opacity="1.00" d=" M 140.76 24.70 C 146.19 19.05 154.56 17.03 162.12 18.69 C 160.74 18.91 159.36 19.15 157.99 19.40 C 159.07 32.27 159.56 45.24 158.40 58.12 C 157.89 63.01 159.11 67.80 159.65 72.62 C 157.52 79.17 155.95 86.13 157.14 93.05 C 157.42 96.58 158.92 99.84 159.72 103.25 C 159.20 107.47 158.02 111.64 158.29 115.93 C 159.38 129.87 159.34 143.93 157.75 157.83 C 154.45 157.58 151.06 157.33 148.00 155.95 C 142.26 153.64 138.42 148.58 133.84 144.67 C 134.55 137.74 134.16 130.77 134.23 123.83 C 139.37 119.80 144.40 115.41 147.62 109.61 C 154.70 97.88 155.53 82.68 149.78 70.25 C 146.12 62.04 139.65 55.25 131.93 50.73 L 131.94 50.60 C 132.48 44.94 132.46 39.25 131.92 33.59 C 135.26 31.03 137.97 27.81 140.76 24.70 Z" />
</g>
<g id="#21dedbff">
<path fill="#21dedb" opacity="1.00" d=" M 157.99 19.40 C 159.36 19.15 160.74 18.91 162.12 18.69 C 168.84 20.25 174.65 25.08 177.57 31.31 C 181.07 38.65 180.22 47.87 175.38 54.41 C 173.18 57.53 169.92 59.61 167.14 62.15 C 163.92 65.07 161.80 68.91 159.65 72.62 C 159.11 67.80 157.89 63.01 158.40 58.12 C 159.56 45.24 159.07 32.27 157.99 19.40 Z" />
</g>
<g id="#5c7ee9ff">
<path fill="#5c7ee9" opacity="1.00" d=" M 42.62 42.99 C 41.78 34.30 46.42 25.33 54.10 21.14 C 54.06 34.38 54.56 47.65 53.83 60.88 C 47.63 57.02 43.17 50.34 42.62 42.99 Z" />
</g>
<g id="#489de4ff">
<path fill="#489de4" opacity="1.00" d=" M 81.37 24.36 C 86.59 31.43 93.88 37.10 102.53 39.18 L 102.55 39.39 C 102.68 40.88 102.82 42.38 102.96 43.88 C 103.43 44.34 104.36 45.25 104.83 45.71 C 96.09 47.27 87.56 51.07 81.36 57.55 C 80.43 46.53 80.48 35.39 81.37 24.36 Z" />
</g>
<g id="#35bedfff">
<path fill="#35bedf" opacity="1.00" d=" M 118.76 39.50 C 123.45 38.29 127.88 36.26 131.92 33.59 C 132.46 39.25 132.48 44.94 131.94 50.60 C 128.01 48.78 123.99 47.14 119.76 46.18 C 119.42 43.96 119.08 41.73 118.76 39.50 Z" />
</g>
<g id="#3db0e2ff">
<path fill="#3db0e2" opacity="1.00" d=" M 102.55 39.39 C 107.91 40.34 113.39 40.55 118.76 39.50 C 119.08 41.73 119.42 43.96 119.76 46.18 C 114.83 45.25 109.80 45.20 104.83 45.71 C 104.36 45.25 103.43 44.34 102.96 43.88 C 102.82 42.38 102.68 40.88 102.55 39.39 Z" />
</g>
<g id="#3bb3e1ff">
<path fill="#3bb3e1" opacity="1.00" d=" M 102.01 66.80 C 107.99 64.70 114.88 64.39 120.68 67.21 C 128.58 70.83 134.10 79.29 133.79 88.03 C 134.03 98.38 126.07 108.08 115.96 110.11 C 111.38 111.24 106.65 110.38 102.21 109.08 L 102.21 108.73 C 102.04 94.84 102.42 80.95 102.02 67.06 L 102.01 66.80 Z" />
</g>
<g id="#44a4e3ff">
<path fill="#44a4e3" opacity="1.00" d=" M 88.35 88.02 C 88.04 79.11 93.80 70.42 102.02 67.06 C 102.42 80.95 102.04 94.84 102.21 108.73 C 93.94 105.53 88.20 96.86 88.35 88.02 Z" />
</g>
<g id="#21dddbff">
<path fill="#21dddb" opacity="1.00" d=" M 158.29 115.93 C 158.02 111.64 159.20 107.47 159.72 103.25 C 161.46 106.13 163.06 109.13 165.34 111.64 C 168.61 115.39 173.16 117.90 175.90 122.14 C 181.18 129.84 180.90 140.78 175.33 148.25 C 171.33 153.97 164.59 157.19 157.75 157.83 C 159.34 143.93 159.38 129.87 158.29 115.93 Z" />
</g>
<g id="#5883e8ff">
<path fill="#5883e8" opacity="1.00" d=" M 49.92 117.94 C 53.70 114.25 58.83 112.45 63.98 111.75 C 63.97 142.49 63.90 173.23 64.01 203.97 C 63.74 214.47 64.33 224.97 63.79 235.47 C 63.09 235.76 61.67 236.35 60.97 236.64 C 54.16 234.96 47.90 230.57 44.91 224.11 C 40.53 215.69 42.40 204.82 48.98 198.07 C 58.89 187.48 61.05 170.62 54.05 157.90 C 51.53 152.61 46.44 149.04 44.29 143.55 C 40.56 134.93 42.94 124.20 49.92 117.94 Z" />
</g>
<g id="#518fe7ff">
<path fill="#518fe7" opacity="1.00" d=" M 63.98 111.75 C 67.70 111.86 71.51 112.22 74.90 113.87 C 78.64 115.47 81.49 118.45 84.53 121.05 L 84.49 121.39 C 83.41 130.09 83.44 138.96 84.53 147.67 L 84.56 147.98 C 77.22 155.27 73.11 165.68 73.61 176.02 C 73.74 178.62 74.42 181.17 74.49 183.78 C 74.21 187.85 73.82 191.92 73.94 196.00 C 74.18 209.13 73.88 222.27 74.15 235.40 C 69.91 236.90 65.40 237.02 60.97 236.64 C 61.67 236.35 63.09 235.76 63.79 235.47 C 64.33 224.97 63.74 214.47 64.01 203.97 C 63.90 173.23 63.97 142.49 63.98 111.75 Z" />
</g>
<g id="#489ee4ff">
<path fill="#489ee4" opacity="1.00" d=" M 84.53 147.67 C 83.44 138.96 83.41 130.09 84.49 121.39 C 88.34 123.89 92.31 126.22 96.57 127.97 C 95.91 131.85 95.84 135.82 96.48 139.71 L 96.51 139.95 C 92.06 141.76 88.20 144.63 84.53 147.67 Z" />
</g>
<g id="#35bde0ff">
<path fill="#35bde0" opacity="1.00" d=" M 105.80 130.24 C 115.70 131.26 125.66 128.80 134.23 123.83 C 134.16 130.77 134.55 137.74 133.84 144.67 C 128.06 140.46 121.26 137.78 114.13 137.12 C 111.41 136.35 110.09 133.93 109.26 131.44 C 108.11 131.02 106.96 130.61 105.80 130.24 Z" />
</g>
<g id="#42a8e3ff">
<path fill="#42a8e3" opacity="1.00" d=" M 96.57 127.97 C 99.61 128.86 102.75 129.36 105.80 130.24 C 106.96 130.61 108.11 131.02 109.26 131.44 C 110.09 133.93 111.41 136.35 114.13 137.12 C 108.12 136.85 102.14 137.67 96.48 139.71 C 95.84 135.82 95.91 131.85 96.57 127.97 Z" />
</g>
<g id="#4d96e5ff">
<path fill="#4d96e5" opacity="1.00" d=" M 74.49 183.78 C 76.42 188.80 78.46 193.89 82.02 198.01 C 85.45 201.96 87.91 206.80 88.37 212.06 C 89.30 221.90 83.15 231.55 74.15 235.40 C 73.88 222.27 74.18 209.13 73.94 196.00 C 73.82 191.92 74.21 187.85 74.49 183.78 Z" />
</g>
</svg>

<?xml version="1.0" encoding="utf-8"?>
<!-- Generator: Adobe Illustrator 26.0.3, SVG Export Plug-In . SVG Version: 6.00 Build 0)  -->
<svg version="1.1" id="Layer_1" xmlns="http://www.w3.org/2000/svg" xmlns:xlink="http://www.w3.org/1999/xlink" x="0px" y="0px"
	 viewBox="0 0 221 250" style="enable-background:new 0 0 221 250;" xml:space="preserve">
<style type="text/css">
	.st0{fill:#538CE7;}
	.st1{fill:#2AD0DD;}
	.st2{fill:#21DEDB;}
	.st3{fill:#5C7EE9;}
	.st4{fill:#489DE4;}
	.st5{fill:#35BEDF;}
	.st6{fill:#3DB0E2;}
	.st7{fill:#3BB3E1;}
	.st8{fill:#44A4E3;}
	.st9{fill:#21DDDB;}
	.st10{fill:#5883E8;}
	.st11{fill:#518FE7;}
	.st12{fill:#489EE4;}
	.st13{fill:#35BDE0;}
	.st14{fill:#42A8E3;}
	.st15{fill:#4D96E5;}
</style>
<g id="_x23_538ce7ff">
	<path class="st0" d="M54.1,20.9c8.7-4.6,20.1-3.4,27.3,3.5c-0.9,11-0.9,22.2,0,33.2c-7.2,7.1-18.9,8.2-27.5,3.3
		c0.7-13.2,0.2-26.5,0.3-39.7V20.9z"/>
</g>
<g id="_x23_2ad0ddff">
	<path class="st1" d="M140.8,24.7c5.4-5.7,13.8-7.7,21.4-6c-1.4,0.2-2.8,0.5-4.1,0.7c1.1,12.9,1.6,25.8,0.4,38.7
		c-0.5,4.9,0.7,9.7,1.2,14.5c-2.1,6.5-3.7,13.5-2.5,20.4c0.3,3.5,1.8,6.8,2.6,10.2c-0.5,4.2-1.7,8.4-1.4,12.7
		c1.1,13.9,1.1,28-0.5,41.9c-3.3-0.2-6.7-0.5-9.8-1.9c-5.7-2.3-9.6-7.4-14.2-11.3c0.7-6.9,0.3-13.9,0.4-20.8
		c5.1-4,10.2-8.4,13.4-14.2c7.1-11.7,7.9-26.9,2.2-39.4c-3.7-8.2-10.1-15-17.9-19.5l0-0.1c0.5-5.7,0.5-11.3,0-17
		C135.3,31,138,27.8,140.8,24.7z"/>
</g>
<g id="_x23_21dedbff">
	<path class="st2" d="M158,19.4c1.4-0.2,2.8-0.5,4.1-0.7c6.7,1.6,12.5,6.4,15.5,12.6c3.5,7.3,2.6,16.6-2.2,23.1
		c-2.2,3.1-5.5,5.2-8.2,7.7c-3.2,2.9-5.3,6.8-7.5,10.5c-0.5-4.8-1.8-9.6-1.2-14.5C159.6,45.2,159.1,32.3,158,19.4z"/>
</g>
<g id="_x23_5c7ee9ff">
	<path class="st3" d="M42.6,43c-0.8-8.7,3.8-17.7,11.5-21.9c0,13.2,0.5,26.5-0.3,39.7C47.6,57,43.2,50.3,42.6,43z"/>
</g>
<g id="_x23_489de4ff">
	<path class="st4" d="M81.4,24.4c5.2,7.1,12.5,12.7,21.2,14.8l0,0.2c0.1,1.5,0.3,3,0.4,4.5c0.5,0.5,1.4,1.4,1.9,1.8
		c-8.7,1.6-17.3,5.4-23.5,11.8C80.4,46.5,80.5,35.4,81.4,24.4z"/>
</g>
<g id="_x23_35bedfff">
	<path class="st5" d="M118.8,39.5c4.7-1.2,9.1-3.2,13.2-5.9c0.5,5.7,0.6,11.3,0,17c-3.9-1.8-8-3.5-12.2-4.4
		C119.4,44,119.1,41.7,118.8,39.5z"/>
</g>
<g id="_x23_3db0e2ff">
	<path class="st6" d="M102.6,39.4c5.4,1,10.8,1.2,16.2,0.1c0.3,2.2,0.7,4.5,1,6.7c-4.9-0.9-10-1-14.9-0.5c-0.5-0.5-1.4-1.4-1.9-1.8
		C102.8,42.4,102.7,40.9,102.6,39.4z"/>
</g>
<g id="_x23_3bb3e1ff">
	<path class="st7" d="M102,66.8c6-2.1,12.9-2.4,18.7,0.4c7.9,3.6,13.4,12.1,13.1,20.8c0.2,10.3-7.7,20.1-17.8,22.1
		c-4.6,1.1-9.3,0.3-13.8-1v-0.3c-0.2-13.9,0.2-27.8-0.2-41.7L102,66.8z"/>
</g>
<g id="_x23_44a4e3ff">
	<path class="st8" d="M88.3,88c-0.3-8.9,5.5-17.6,13.7-21c0.4,13.9,0,27.8,0.2,41.7C93.9,105.5,88.2,96.9,88.3,88z"/>
</g>
<g id="_x23_21dddbff">
	<path class="st9" d="M158.3,115.9c-0.3-4.3,0.9-8.5,1.4-12.7c1.7,2.9,3.3,5.9,5.6,8.4c3.3,3.8,7.8,6.3,10.6,10.5
		c5.3,7.7,5,18.6-0.6,26.1c-4,5.7-10.7,8.9-17.6,9.6C159.3,143.9,159.4,129.9,158.3,115.9z"/>
</g>
<g id="_x23_5883e8ff">
	<path class="st10" d="M49.9,117.9c3.8-3.7,8.9-5.5,14.1-6.2c0,30.7-0.1,61.5,0,92.2c-0.3,10.5,0.3,21-0.2,31.5
		c-0.7,0.3-2.1,0.9-2.8,1.2c-6.8-1.7-13.1-6.1-16.1-12.5c-4.4-8.4-2.5-19.3,4.1-26c9.9-10.6,12.1-27.5,5.1-40.2
		c-2.5-5.3-7.6-8.9-9.8-14.3C40.6,134.9,42.9,124.2,49.9,117.9z"/>
</g>
<g id="_x23_518fe7ff">
	<path class="st11" d="M64,111.8c3.7,0.1,7.5,0.5,10.9,2.1c3.7,1.6,6.6,4.6,9.6,7.2l0,0.3c-1.1,8.7-1,17.6,0,26.3l0,0.3
		c-7.3,7.3-11.4,17.7-10.9,28c0.1,2.6,0.8,5.1,0.9,7.8c-0.3,4.1-0.7,8.1-0.5,12.2c0.2,13.1-0.1,26.3,0.2,39.4
		c-4.2,1.5-8.8,1.6-13.2,1.2c0.7-0.3,2.1-0.9,2.8-1.2c0.5-10.5,0-21,0.2-31.5C63.9,173.2,64,142.5,64,111.8z"/>
</g>
<g id="_x23_489ee4ff">
	<path class="st12" d="M84.5,147.7c-1.1-8.7-1.1-17.6,0-26.3c3.8,2.5,7.8,4.8,12.1,6.6c-0.7,3.9-0.7,7.9-0.1,11.7l0,0.2
		C92.1,141.8,88.2,144.6,84.5,147.7z"/>
</g>
<g id="_x23_35bde0ff">
	<path class="st13" d="M105.8,130.2c9.9,1,19.9-1.4,28.4-6.4c-0.1,6.9,0.3,13.9-0.4,20.8c-5.8-4.2-12.6-6.9-19.7-7.6
		c-2.7-0.8-4-3.2-4.9-5.7C108.1,131,107,130.6,105.8,130.2z"/>
</g>
<g id="_x23_42a8e3ff">
	<path class="st14" d="M96.6,128c3,0.9,6.2,1.4,9.2,2.3c1.2,0.4,2.3,0.8,3.5,1.2c0.8,2.5,2.2,4.9,4.9,5.7c-6-0.3-12,0.6-17.6,2.6
		C95.8,135.8,95.9,131.9,96.6,128z"/>
</g>
<g id="_x23_4d96e5ff">
	<path class="st15" d="M74.5,183.8c1.9,5,4,10.1,7.5,14.2c3.4,4,5.9,8.8,6.4,14.1c0.9,9.8-5.2,19.5-14.2,23.3
		c-0.3-13.1,0-26.3-0.2-39.4C73.8,191.9,74.2,187.9,74.5,183.8z"/>
</g>
</svg>
